img/partners/airbnb.svg

<svg width="119" height="37" viewBox="0 0 119 37" fill="none" xmlns="http://www.w3.org/2000/svg">
<path fill-rule="evenodd" clip-rule="evenodd" d="M33.5266 24.7764C33.7035 25.1881 33.8805 25.6585 34.0574 26.129C34.5883 27.4816 34.7063 28.7754 34.5293 30.0692C34.1164 32.7745 32.3469 35.1269 29.7515 36.1854C28.8077 36.5971 27.805 36.7735 26.7433 36.7735C26.4483 36.7735 26.0944 36.7735 25.7995 36.7147C24.5608 36.5971 23.3221 36.1854 22.0834 35.4797C20.6088 34.6564 19.1342 33.4214 17.4826 31.6571C15.831 33.4214 14.4154 34.6564 12.8818 35.4797C11.6431 36.1854 10.4044 36.5383 9.16572 36.7147C9.0183 36.7147 8.85614 36.7294 8.69398 36.7441L8.69384 36.7441C8.53163 36.7588 8.36942 36.7735 8.22196 36.7735C7.16022 36.7735 6.15748 36.5971 5.21372 36.1854C2.67736 35.1269 0.789837 32.8333 0.376941 30.0692C0.199986 28.7166 0.376941 27.4228 0.848822 26.129C1.02578 25.5997 1.20273 25.1881 1.37969 24.7764C1.67461 24.1295 1.96954 23.4826 2.20548 22.8945L2.26446 22.8357C4.85981 17.3076 7.57312 11.7207 10.4044 6.19258L10.5224 5.95734C10.8173 5.42807 11.1122 4.84 11.4071 4.25192L11.4071 4.25186C11.4866 4.12741 11.566 4.00078 11.6463 3.87281L11.6463 3.8728L11.6463 3.87279C11.9833 3.33559 12.3351 2.77478 12.7638 2.25234C14.0025 0.840911 15.6541 0.0175781 17.4826 0.0175781C19.2522 0.0175781 20.9627 0.840911 22.1424 2.31115C22.7323 2.95805 23.1452 3.66377 23.4991 4.31067L23.4991 4.31077C23.7941 4.89884 24.089 5.48689 24.3839 6.01615L24.5018 6.25139C27.3921 11.7795 30.1054 17.3664 32.6418 22.8945H32.7008C32.9367 23.4826 33.2316 24.1295 33.5266 24.7764ZM62.5472 9.25067C62.5472 10.6033 61.4855 11.6619 60.1288 11.6619C58.7722 11.6619 57.7104 10.6033 57.7104 9.25067C57.7104 7.89805 58.7722 6.83948 60.1288 6.83948C61.5445 6.89829 62.5472 7.95686 62.5472 9.25067ZM52.6967 14.0731V14.6611C52.6967 14.6611 51.576 13.1909 49.0986 13.1909C45.0876 13.1909 41.9614 16.249 41.9614 20.4833C41.9614 24.6588 45.0876 27.7757 49.0986 27.7757C51.576 27.7757 52.6967 26.2466 52.6967 26.2466V26.8935C52.6967 27.1876 52.9326 27.4228 53.2276 27.4228H56.2358V13.5438H53.2276C52.8737 13.5438 52.6967 13.779 52.6967 14.0731ZM49.6885 24.4235C51.0451 24.4235 52.1658 23.7178 52.6967 22.8945V17.9545C52.1658 17.19 50.9861 16.4254 49.6885 16.4254C47.3291 16.4254 45.5005 17.8957 45.5005 20.4245C45.5005 22.9533 47.3291 24.4235 49.6885 24.4235ZM58.3593 13.5438H61.8984V27.364H58.3593V13.5438ZM107.671 14.6611C107.671 14.6611 108.85 13.1909 111.269 13.1909C115.28 13.1909 118.406 16.249 118.406 20.4245C118.406 24.6 115.28 27.7169 111.269 27.7169C108.792 27.7169 107.671 26.1878 107.671 26.1878V26.8347C107.671 27.1288 107.435 27.364 107.14 27.364H104.132V6.89829H107.671V14.6611ZM110.679 24.3647C109.322 24.3647 108.261 23.659 107.671 22.8357V17.8957C108.202 17.1311 109.381 16.3666 110.679 16.3666C113.038 16.3666 114.867 17.8369 114.867 20.3657C114.867 22.8945 113.038 24.3647 110.679 24.3647ZM102.303 27.4228V19.1895C102.303 16.8371 101.831 15.5433 100.652 14.5435C99.5898 13.6614 98.2922 13.1909 96.7585 13.1909C95.4019 13.1909 94.0452 13.6026 92.9835 14.6611V14.0731C92.9835 13.779 92.7476 13.5438 92.4526 13.5438H89.6214V27.4228H93.1605V17.7781C93.8683 16.9547 94.989 16.4254 96.0507 16.4254C97.9972 16.4254 98.764 17.3076 98.764 19.6011V27.4228H102.303ZM81.0095 13.1909C78.5911 13.1909 77.4114 14.6611 77.4114 14.6611V6.89829H73.8723V27.364H76.8806C77.1755 27.364 77.4114 27.1288 77.4114 26.8347V26.1878C77.4114 26.1878 78.5322 27.7169 81.0095 27.7169C85.0205 27.7169 88.1467 24.6 88.1467 20.4245C88.2057 16.249 85.0795 13.1909 81.0095 13.1909ZM77.4114 22.8357C78.0013 23.659 79.063 24.3647 80.4197 24.3647C82.7791 24.3647 84.6076 22.8945 84.6076 20.3657C84.6076 17.8369 82.7791 16.3666 80.4197 16.3666C79.122 16.3666 77.9423 17.1311 77.4114 17.8957V22.8357ZM70.8641 13.1909C71.9258 13.1909 72.5157 13.3673 72.5157 13.3673V16.6607C72.5157 16.6607 69.5664 15.6609 67.7379 17.7781V27.4228H64.1988V13.5438H67.207C67.502 13.5438 67.7379 13.779 67.7379 14.0731V14.6611C68.3277 13.8966 69.7434 13.1909 70.8641 13.1909ZM17.4236 28.0109C15.4181 25.4821 14.1205 23.1297 13.7076 21.189C13.5306 20.3657 13.4716 19.6011 13.5896 18.9542C13.6486 18.3661 13.8845 17.8369 14.1794 17.4252C14.8873 16.4254 16.067 15.7785 17.4236 15.7785C18.7803 15.7785 20.019 16.3666 20.6678 17.4252C20.9627 17.8957 21.1987 18.3661 21.2577 18.9542C21.3756 19.6011 21.3166 20.3657 21.1397 21.189C20.7268 23.1297 19.4291 25.4821 17.4236 28.0109ZM28.8077 34.0683C30.6363 33.3626 31.934 31.7159 32.1699 29.7752C32.2879 28.7754 32.1699 27.8933 31.9929 26.9523C31.9291 26.7613 31.8479 26.5703 31.7588 26.3606C31.6834 26.1829 31.6022 25.9919 31.5211 25.7761C31.3736 25.4821 31.2409 25.1734 31.1082 24.8646C30.9754 24.5559 30.8427 24.2471 30.6953 23.9531V23.8942C28.1589 18.425 25.4456 12.8381 22.6143 7.36877L22.4963 7.13353L22.4963 7.1335C22.2014 6.54542 21.9065 5.95733 21.6116 5.42805C21.3166 4.83996 20.9627 4.25186 20.5498 3.78139C19.783 2.89924 18.7213 2.42877 17.6006 2.42877C16.4799 2.42877 15.4181 2.89924 14.6513 3.78139C14.2384 4.31067 13.8845 4.83996 13.5896 5.42805C13.2947 6.01615 12.9997 6.60424 12.7048 7.13353L12.5869 7.36877C9.69658 12.8381 6.98327 18.425 4.44691 23.8942L4.38793 23.9531C4.093 24.5411 3.79808 25.1881 3.56214 25.7761C3.38518 26.1878 3.20822 26.5995 3.09025 26.9523C2.67736 28.0109 2.61837 28.8931 2.73634 29.834C2.97228 31.7159 4.26996 33.3626 6.09849 34.1271C6.92428 34.4211 7.86805 34.5976 8.87079 34.48C9.81455 34.3623 10.7583 34.0683 11.7021 33.539C12.9997 32.7745 14.3564 31.6571 15.89 29.9516C13.4716 26.9523 11.938 24.1883 11.4072 21.7771C11.1122 20.6597 11.0532 19.6011 11.2302 18.6602C11.4071 17.7192 11.7021 16.8959 12.2329 16.1314C13.3537 14.5435 15.3002 13.5438 17.4236 13.5438C19.5471 13.5438 21.4936 14.4847 22.6143 16.1314C23.1452 16.8959 23.4401 17.7192 23.6171 18.6602C23.735 19.6011 23.676 20.6597 23.4401 21.7771C22.8503 24.1883 21.3756 26.8935 18.9572 29.8928C20.4909 31.5983 21.7885 32.7157 23.1452 33.4802C24.1479 34.0095 25.0327 34.3035 25.9765 34.4212C26.9792 34.5388 27.923 34.4211 28.8077 34.0683Z" fill="#8C98A4"/>
</svg>

<svg width="119" height="37" fill="none" xmlns="http://www.w3.org/2000/svg"><path fill-rule="evenodd" clip-rule="evenodd" d="M33.527 24.776c.176.412.353.883.53 1.353a7.669 7.669 0 0 1 .472 3.94c-.413 2.706-2.182 5.058-4.778 6.116-.943.412-1.946.588-3.008.588-.295 0-.649 0-.944-.058-1.238-.118-2.477-.53-3.716-1.235-1.474-.824-2.949-2.059-4.6-3.823-1.652 1.764-3.068 3-4.601 3.823-1.239.705-2.478 1.058-3.716 1.235-.148 0-.31.014-.472.03-.162.014-.325.029-.472.029-1.062 0-2.065-.177-3.008-.589C2.677 35.127.79 32.833.377 30.07c-.177-1.352 0-2.646.472-3.94.177-.53.354-.94.53-1.353.296-.646.59-1.293.826-1.881l.06-.06a539.912 539.912 0 0 1 8.14-16.642l.117-.236c.295-.529.59-1.117.885-1.705l.24-.38c.336-.536.688-1.097 1.117-1.62C14.003.841 15.654.018 17.483.018c1.77 0 3.48.823 4.66 2.293.59.647 1.002 1.353 1.356 2 .295.588.59 1.176.885 1.705l.118.235a359.953 359.953 0 0 1 8.14 16.643h.059c.236.589.53 1.236.826 1.882zm29.02-15.525a2.388 2.388 0 0 1-2.418 2.41 2.389 2.389 0 0 1-2.419-2.41 2.388 2.388 0 0 1 2.419-2.412c1.416.06 2.418 1.118 2.418 2.412zm-9.85 4.822v.588s-1.121-1.47-3.598-1.47c-4.011 0-7.138 3.058-7.138 7.292 0 4.176 3.127 7.293 7.138 7.293 2.477 0 3.598-1.53 3.598-1.53v.648c0 .294.236.529.53.529h3.009v-13.88h-3.008c-.354 0-.531.236-.531.53zm-3.009 10.35c1.357 0 2.478-.705 3.009-1.528v-4.94c-.531-.765-1.71-1.53-3.009-1.53-2.359 0-4.188 1.47-4.188 4 0 2.528 1.83 3.998 4.188 3.998zm8.671-10.88h3.54v13.821h-3.54v-13.82zm49.312 1.118s1.179-1.47 3.598-1.47c4.011 0 7.137 3.058 7.137 7.233 0 4.176-3.126 7.293-7.137 7.293-2.477 0-3.598-1.53-3.598-1.53v.648c0 .294-.236.529-.531.529h-3.008V6.898h3.539v7.763zm3.008 9.704a3.697 3.697 0 0 1-3.008-1.53v-4.94c.531-.764 1.71-1.528 3.008-1.528 2.359 0 4.188 1.47 4.188 3.999s-1.829 3.999-4.188 3.999zm-8.376 3.058V19.19c0-2.353-.472-3.647-1.651-4.647-1.062-.882-2.36-1.352-3.894-1.352-1.356 0-2.713.412-3.774 1.47v-.588a.528.528 0 0 0-.531-.53H89.62v13.88h3.54v-9.645c.707-.823 1.828-1.353 2.89-1.353 1.946 0 2.713.883 2.713 3.176v7.822h3.539zM81.01 13.19c-2.419 0-3.599 1.47-3.599 1.47V6.898h-3.539v20.466h3.009c.294 0 .53-.235.53-.53v-.646s1.121 1.529 3.599 1.529c4.01 0 7.137-3.117 7.137-7.293.059-4.175-3.068-7.233-7.138-7.233zm-3.599 9.645a3.698 3.698 0 0 0 3.009 1.529c2.36 0 4.188-1.47 4.188-4 0-2.528-1.829-3.998-4.188-3.998-1.298 0-2.478.764-3.009 1.529v4.94zm-6.547-9.645c1.062 0 1.652.176 1.652.176v3.294s-2.95-1-4.778 1.117v9.645h-3.54v-13.88h3.009c.295 0 .53.236.53.53v.588c.59-.764 2.006-1.47 3.127-1.47zm-53.44 14.82c-2.006-2.529-3.303-4.881-3.716-6.822-.177-.823-.236-1.588-.118-2.235a3.206 3.206 0 0 1 .59-1.529c.707-1 1.887-1.647 3.244-1.647 1.356 0 2.595.589 3.244 1.647.295.47.53.941.59 1.53.118.646.059 1.41-.118 2.234-.413 1.94-1.71 4.293-3.716 6.822zm11.384 6.057a5.296 5.296 0 0 0 3.362-4.293c.118-1 0-1.882-.177-2.823-.064-.19-.145-.382-.234-.591-.076-.178-.157-.37-.238-.585-.147-.294-.28-.603-.413-.911-.133-.31-.265-.618-.413-.912v-.059a425.906 425.906 0 0 0-8.08-16.525l-.119-.235c-.295-.589-.59-1.177-.884-1.706-.295-.588-.65-1.176-1.062-1.647A3.874 3.874 0 0 0 17.6 2.43c-1.12 0-2.182.47-2.949 1.352a9.789 9.789 0 0 0-1.061 1.647c-.295.588-.59 1.176-.885 1.706l-.118.235c-2.89 5.47-5.604 11.056-8.14 16.525l-.06.06c-.294.587-.589 1.234-.825 1.822-.177.412-.354.823-.472 1.176-.413 1.059-.472 1.941-.354 2.882.236 1.882 1.534 3.529 3.362 4.293.826.294 1.77.47 2.773.353a7.662 7.662 0 0 0 2.831-.941c1.298-.764 2.654-1.882 4.188-3.587-2.418-3-3.952-5.764-4.483-8.175-.295-1.117-.354-2.176-.177-3.117.177-.94.472-1.764 1.003-2.529 1.12-1.588 3.067-2.587 5.19-2.587 2.124 0 4.07.94 5.191 2.587.531.765.826 1.588 1.003 2.53.118.94.059 1.999-.177 3.116-.59 2.411-2.064 5.116-4.483 8.116 1.534 1.705 2.831 2.823 4.188 3.587 1.003.53 1.888.824 2.832.941 1.002.118 1.946 0 2.83-.353z" fill="#8C98A4"/></svg>
